X:1
T:Lead On, O King Eternal
T:Text: Ernest W. Shurtleff, 1888, alt. Tune: Henry T. Smart, 1836
T:76 76 D LANCASHIRE www.hymnary.org/text/lead_on_o_king_eternal_the_day_of_march
T:Lead On, O King Eternal
T:This hymn is in the public domain. You may freely use this score for personal and congregational worship. If you reproduce the score, please credit Hymnary.org as the source. 
T:This hymn is in the public domain. You may freely use this score for personal and congregational worship. If you reproduce the score, please credit Hymnary.org as the source. 
Z:This hymn is in the public domain. You may freely use this score for personal and congregational worship. If you reproduce the score, please credit Hymnary.org as the source.
%%score ( 1 2 ) ( 3 4 )
L:1/8
M:4/4
K:C
V:1 treble nm="SOPRANO ALTO" snm="S. A."
V:2 treble 
V:3 bass nm="TENOR BASS" snm="T. B."
V:4 bass 
V:1
"^1""^2""^3" G2 | G2 E2 F2 A2 | G4 E2 c2 | c2 F2 G2 A2 | D6 | G2 | G2 E2 F2 A2 | G4 E2 E2 | %8
w: Lead|on, O King e-|ter- nal, the|day of march has|come;|hence-|forth in fields of|con- quest your|
w: Lead|on, O King e-|ter- nal, till|sin's fierce war shall|cease,|and|ho- li- ness shall|whis- per the|
w: Lead|on, O King e-|ter- nal; we|fol- low, not with|fears,|for|glad- ness breaks like|morn- ing wher-|
 D2 B2 A2 ^F2 | G6 | G2 | G2 E2 D2 c2 | (c3 A) F2 A2 | A2 ^F2 D2 d2 | (d4 B2) |1 G2 | c2 c2 c2 c2 | %17
w: tents will be our|home.|Through|days of prep- a-|ra- * tion your|grace has made us|strong; *|and|now, O King e-|
w: sweet a- men of|peace.|For|not with swords' loud|clash- * ing or|roll of stir- ring|drums— *|with|deeds of love and|
w: e're your face ap-|pears.|Your|cross is lift- ed|o'er * us, we|jour- ney in its|light; *|the|crown a- waits the|
 c4 B2 A2 | G2 E2 D2 B,2 | C6 x2 |] %20
w: ter- nal, we|lift our bat- tle|song.|
w: mer- cy the|heav- enly king- dom|comes.|
w: con- quest; lead|on, O God of|might.|
V:2
 C2 | C2 C2 C2 C2 | C4 C2 E2 | F2 C2 C2 C2 | B,6 | B,2 | C2 C2 C2 C2 | C4 C2 C2 | B,2 D2 C2 C2 | %9
 B,6 | B,2 | C2 C2 G,2 E2 | F4 C2 ^C2 | D2 D2 A,2 ^F2 | G6 |1 D2 | C2 C2 D2 E2 | F4 C2 C2 | %18
 C2 C2 G,2 G,2 | G,6 x2 |] %20
V:3
 E,2 | E,2 G,2 A,2 F,2 | E,4 G,2 G,2 | F,2 C2 B,2 A,2 | G,6 | F,2 | E,2 _B,2 A,2 F,2 | %7
 E,4 G,2 G,2 | G,2 G,2 ^F,2 A,2 | G,6 | F,2 | E,2 _B,2 B,2 B,2 | (A,3 C) A,2 G,2 | ^F,2 C2 C2 C2 | %14
 (B,4 D2) |1 B,2 | G,2 G,2 A,2 _B,2 | C4 C2 F,2 | E,2 G,2 F,2 D,2 | E,6 x2 |] %20
V:4
 C,2 | C,2 C,2 C,2 C,2 | C,4 C,2 _B,,2 | A,,2 A,,2 G,,2 F,,2 | G,,6 | G,,2 | C,2 C,2 C,2 C,2 | %7
 C,4 C,2 C,2 | D,2 D,2 D,2 D,2 | G,,6 | G,,2 | C,2 G,2 E,2 C,2 | F,4 F,2 E,2 | D,2 A,2 ^F,2 D,2 | %14
 G,6 |1 F,2 | E,2 E,2 F,2 G,2 | A,4 F,2 F,,2 | G,,2 G,,2 G,,2 G,,2 | C,6 x2 |] %20

